packages/foundations/assets/icons/functional/images/transportation/bike_32_inverted.svg

<svg width="32" height="32" viewBox="0 0 32 32" fill="none" xmlns="http://www.w3.org/2000/svg">
<g clip-path="url(#clip0_2214_6640)">
<path fill-rule="evenodd" clip-rule="evenodd" d="M23.9792 7.81322C24.0745 8.23595 23.8368 8.65608 23.4395 8.79939L22.04 9.12109C23.136 12.515 23.684 14.2119 23.684 14.2119C27.3484 13.7412 29.85 16.5454 29.85 19.5001C29.85 22.4548 27.4547 24.8501 24.5 24.8501C21.5453 24.8501 19.15 22.4548 19.15 19.5001C19.15 17.4215 20.3355 15.6197 22.0672 14.734L21.482 12.9229L16.8239 19.8863C16.7696 19.9674 16.5222 20.3473 15.7909 20.4145L14.9721 20.4214C14.6405 20.4214 14.3428 20.229 14.2038 19.935L12.533 14.7999L11.5385 15.9909C12.3105 16.8786 12.85 18.1232 12.85 19.5001C12.85 22.4548 10.4547 24.8501 7.50002 24.8501C4.5453 24.8501 2.15002 22.4548 2.15002 19.5001C2.15002 16.5454 4.5453 14.1501 7.50002 14.1501C8.4989 14.1501 9.43385 14.4238 10.2339 14.9004L11.914 12.8879L10.929 9.8499L10 9.85009C9.53058 9.85009 9.15002 9.46953 9.15002 9.00009C9.15002 8.56676 9.50248 8.15009 10 8.15009H14C14.4695 8.15009 14.85 8.53064 14.85 9.00009C14.85 9.43342 14.4814 9.8499 14 9.8499H12.717L13.451 12.1159L20.69 10.4729L20.1367 8.75817C19.994 8.31647 20.2322 7.84955 20.6574 7.69712L22.9632 7.17088C23.4211 7.06768 23.876 7.35526 23.9792 7.81322ZM7.50002 15.8501C5.48418 15.8501 3.85002 17.4842 3.85002 19.5001C3.85002 21.5159 5.48418 23.1501 7.50002 23.1501C9.51586 23.1501 11.15 21.5159 11.15 19.5001C11.15 18.6832 10.8817 17.9291 10.4284 17.3209L8.15243 20.0449C7.88041 20.3678 7.31547 20.4498 6.95517 20.1525C6.62488 19.8767 6.51047 19.3411 6.84762 18.9552L9.12367 16.2302C8.63464 15.9869 8.08331 15.8501 7.50002 15.8501ZM24.2172 15.8609C24.2172 15.8609 24.5811 16.9869 25.3089 19.2388C25.4421 19.6511 25.2202 20.1525 24.8064 20.2991C24.3925 20.4457 23.8596 20.2618 23.6912 19.7614L22.5998 16.3831C21.5504 17.0242 20.85 18.1804 20.85 19.5001C20.85 21.5159 22.4842 23.1501 24.5 23.1501C26.5159 23.1501 28.15 21.5159 28.15 19.5001C28.15 17.4842 26.5006 15.7302 24.2172 15.8609ZM19.769 12.4249L13.977 13.7399L15.579 18.6881L19.769 12.4249Z" fill="#1A1C1F"/>
</g>
<defs>
<clipPath id="clip0_2214_6640">
<rect width="32" height="32" fill="white"/>
</clipPath>
</defs>
</svg>

<svg xmlns="http://www.w3.org/2000/svg" width="32" height="32" fill="none"><g clip-path="url(#a)"><path fill="#1A1C1F" fill-rule="evenodd" d="M23.98 7.813a.85.85 0 0 1-.54.986l-1.4.322 1.644 5.09c3.664-.47 6.166 2.334 6.166 5.29a5.35 5.35 0 1 1-7.783-4.767l-.585-1.811-4.658 6.963c-.054.081-.302.461-1.033.529l-.819.006a.85.85 0 0 1-.768-.486L12.533 14.8l-.994 1.19a5.4 5.4 0 0 1 1.311 3.51 5.35 5.35 0 1 1-2.616-4.6l1.68-2.012-.985-3.038H10a.85.85 0 0 1 0-1.7h4c.47 0 .85.38.85.85 0 .433-.369.85-.85.85h-1.283l.734 2.266 7.239-1.643-.553-1.715a.85.85 0 0 1 .52-1.06l2.306-.527a.85.85 0 0 1 1.016.642M7.5 15.85a3.65 3.65 0 1 0 2.928 1.47l-2.276 2.725c-.272.323-.837.405-1.197.107-.33-.275-.445-.81-.107-1.197l2.276-2.725a3.6 3.6 0 0 0-1.624-.38m16.717.01 1.092 3.379c.133.412-.089.913-.503 1.06s-.946-.037-1.115-.538L22.6 16.383a3.65 3.65 0 1 0 5.55 3.117c0-2.016-1.65-3.77-3.933-3.64m-4.448-3.435-5.792 1.315 1.602 4.948z" clip-rule="evenodd"/></g><defs><clipPath id="a"><path fill="#fff" d="M0 0h32v32H0z"/></clipPath></defs></svg>
